X:1
T:Hatikvah
T:Hatikvah
%%score { ( 1 3 ) | ( 2 4 ) }
L:1/8
Q:1/4=58
M:4/4
K:F
V:1 treble nm="Piano" snm="Pno."
V:3 treble 
V:2 bass 
V:4 bass 
V:1
"^\n""_With expression" z4 z2!mp! (!1!A,2 | DEFG !3!A2 A2 | BABd A4) | (!5!G2 GG F2 F2 | %4
 !2!!4![B,E]D[A,^CE]F [F,A,D]3) (A, | DEFG A2 A2 | BABd A4) | (G2 GG F2 FF | EDEF D4) | %9
!f! z2 (!1!!5![Fd]2 d2 d2 | cdcB!>(! A4)!>)! |!mp! z2 ([Fd]2 d2 d2 | cdcB A4) | (!5!c2 cc F2 F2 | %14
 GABc A2) (!3!GF | G2 G2 F2 FF | EDEF D4) |!p! (!3!G2 GG F2 FF | GABc [FA]G F2) | (G2 GG F2 FF | %20
 EDEF D3)!mp! (A, | DEFG A2 A2 | BABd A4) | (G2 GG F2 F2 | EDEF [F,A,D]4) | %25
!mp!"^Slower" (!1!!4!!5![FAd]2 [FBd]2 d2 d2 | cdcB A4) |"^rit.\n" (G4 F2 FF | EDEF !fermata!D4) |] %29
V:2
 z4 z2 A,,2 |!ped! D,,4!ped! F,,4!ped-up! |!ped! G,,4!ped! D,,4!ped-up! | %3
!ped! E,,2 A,,2 A,,G,,F,,D,,!ped-up! |!ped! G,,2 A,,2 D,,2 A,,2!ped-up! | %5
!ped! D,,4!ped! F,,4!ped-up! |!ped! G,,4 D,,3 F,,!ped-up! |!ped! B,,2 E,,2 D,A,, D,,2!ped-up! | %8
!ped! G,,2 A,,2 D,,2 A,,2!ped-up! |!ped! B,,4!ped! C,4!ped-up! |!ped! C,4 F,2 F,,2!ped-up! | %11
!ped! B,,4!ped! C,4!ped-up! |!ped! C,,4 F,,4!ped-up! |!ped! A,,4!ped! D,4!ped-up! | %14
!ped! G,,2 C,,2!ped! D,,4!ped-up! |!ped! B,,2 ^C,,2!ped! D,,4!ped-up! | %16
!ped! B,,2 A,,2 D,,3 A,,!ped-up! |!ped! B,,4 A,,2 A,,2!ped-up! |!ped! B,,2 A,,2 D,,2 D,C,!ped-up! | %19
!ped! B,,2 ^C,,2!ped! D,,4!ped-up! |!ped! B,,2 A,,2!ped! D,,4!ped-up! | %21
!ped! D,,4!ped! F,,4!ped-up! |!ped! G,,4!ped! D,,4!ped-up! |!ped! E,,2 A,,2 A,,G,,F,,D,,!ped-up! | %24
!ped! G,,2 A,,2 D,2 D,,2!ped-up! |!ped! B,,,4!ped! E,,4!ped-up! |!ped! A,,4!ped! D,4!ped-up! | %27
!ped! E,,4!ped! D,,4!ped-up! |!ped! A,,2 A,,,2 !fermata!D,,4!ped-up! |] %29
V:3
 x8 | A,4 !1!D4 | D4 F4 | !2!D2 ^C2 D2 D2 | x8 | A,4 D4 | D4 F4 | D2 [B,D]2 [A,D]4 | %8
 B,2 [A,^C]2 [F,A,]4 | [B,D]4 [EG]4 | E4 [CF]4 | [B,D]4 [EG]4 | [EB]4 [CF]4 | !1!!3![EA]4 D4 | %14
 [DF]2 E2 F2 !5!ED | D2 E2 [A,D]4 | G,2 [G,^C]2 [F,A,]4 | !1!D4 D4 | D2 ^C2 D4 | D2 E2 [A,D]4 | %20
 G,2 [A,^C]2 [F,A,]3 x | A,4 D4 | D4 F4 | D2 ^C2 D2 D2 | x8 | x4 [GB]4 | F4 E2 F2 | %27
 ^C2 A,2 D2 A,2 | G,2 [G,^C]2 [F,A,]4 |] %29
V:4
 x8 | x8 | x8 | x8 | x8 | x8 | x8 | x8 | x8 | B,,,4 C,,4 | x8 | B,,,4 C,,4 | x8 | x8 | x8 | x8 | %16
 x8 | x8 | x8 | x8 | x8 | x8 | x8 | x8 | x8 | B,,4 E,4 | x4 D,,4 | x8 | x8 |] %29

